src/assets/img/subwallet-logo.svg

<svg width="78" height="78" viewBox="0 0 78 78" fill="none" xmlns="http://www.w3.org/2000/svg">
<circle cx="39" cy="39" r="39" fill="#080120"/>
<path d="M55.9319 52.9999C55.9319 52.9999 48.7685 62.9999 39.9319 62.9999C31.0954 62.9999 23.9319 52.9999 23.9319 52.9999C23.9319 52.9999 31.0954 42.9999 39.9319 42.9999C48.7685 42.9999 55.9319 52.9999 55.9319 52.9999Z" fill="#080120"/>
<path d="M24.6516 53.122C24.6174 53.0781 24.5859 53.0374 24.5571 52.9999C24.5859 52.9625 24.6174 52.9218 24.6516 52.8779C24.8601 52.6103 25.1692 52.2262 25.5679 51.7645C26.366 50.8404 27.5204 49.6089 28.9451 48.3787C31.8102 45.9049 35.6948 43.5003 39.9318 43.5003C44.1689 43.5003 48.0534 45.9049 50.9185 48.3787C52.3433 49.6089 53.4977 50.8404 54.2958 51.7645C54.6945 52.2262 55.0035 52.6103 55.2121 52.8779C55.2463 52.9217 55.2778 52.9625 55.3066 52.9999C55.2778 53.0374 55.2463 53.0781 55.2121 53.122C55.0035 53.3896 54.6945 53.7737 54.2958 54.2354C53.4977 55.1595 52.3433 56.391 50.9185 57.6212C48.0534 60.095 44.1689 62.4995 39.9318 62.4995C35.6948 62.4995 31.8102 60.095 28.9451 57.6212C27.5204 56.391 26.366 55.1595 25.5679 54.2354C25.1692 53.7737 24.8601 53.3896 24.6516 53.122V53.122Z" stroke="#080120" stroke-width="1.00078"/>
<path d="M53.1184 35.9654L53.1108 28.033L24 12.947V35.9577L42.6361 45.9132L49.4461 42.9128L28.9396 32.0336L28.9549 23.3149L53.1184 35.9654Z" fill="url(#paint0_linear_28_34)"/>
<path d="M35.3146 26.6435V29.3538L28.9168 32.0946L28.9626 23.2079L35.3146 26.6435Z" fill="url(#paint1_linear_28_34)"/>
<path d="M35.3379 49.1274L49.4466 42.9129L28.9401 32.087L35.2768 29.3539L61.6389 43.1267L35.3914 54.5785L35.3379 49.1274Z" fill="url(#paint2_linear_28_34)"/>
<path d="M28.9627 47.2874L35.2612 44.5695L35.3987 54.5709L61.6389 43.1265V51.662L28.9093 66L28.9627 47.2874Z" fill="url(#paint3_linear_28_34)"/>
<path d="M24 44.707L28.9396 47.2875L28.9091 65.9694L24 63.5032V44.707Z" fill="url(#paint4_linear_28_34)"/>
<path d="M30.2375 41.9281L35.261 44.5697L28.9396 47.2876L24 44.7071L30.2375 41.9281Z" fill="url(#paint5_linear_28_34)"/>
<path d="M61.6389 32.2703L61.6088 24.2845L53.1265 28.0331V35.9731L61.6389 32.2703Z" fill="url(#paint6_linear_28_34)"/>
<path d="M24 12.9471L32.5737 9L61.6231 24.2692L53.126 28.033L24 12.9471Z" fill="url(#paint7_linear_28_34)"/>
<defs>
<linearGradient id="paint0_linear_28_34" x1="16.7166" y1="29.4301" x2="68.151" y2="29.4301" gradientUnits="userSpaceOnUse">
<stop stop-color="#FFD4B2"/>
<stop offset="0.36" stop-color="#9ACEB7"/>
<stop offset="0.67" stop-color="#47C8BB"/>
<stop offset="0.89" stop-color="#14C5BE"/>
<stop offset="1" stop-color="#00C4BF"/>
</linearGradient>
<linearGradient id="paint1_linear_28_34" x1="32.1156" y1="35.263" x2="32.1156" y2="15.3367" gradientUnits="userSpaceOnUse">
<stop stop-color="#00FECF"/>
<stop offset="0.08" stop-color="#00E5D0"/>
<stop offset="0.24" stop-color="#00A5D1"/>
<stop offset="0.48" stop-color="#0040D4"/>
<stop offset="0.54" stop-color="#0025D5"/>
<stop offset="1"/>
</linearGradient>
<linearGradient id="paint2_linear_28_34" x1="28.9401" y1="41.9662" x2="81.3212" y2="41.9662" gradientUnits="userSpaceOnUse">
<stop stop-color="#FDEC9F"/>
<stop offset="0.08" stop-color="#E4D8A4"/>
<stop offset="0.24" stop-color="#A4A6B2"/>
<stop offset="0.47" stop-color="#3F57C8"/>
<stop offset="0.61" stop-color="#0025D5"/>
<stop offset="1"/>
</linearGradient>
<linearGradient id="paint3_linear_28_34" x1="18.2285" y1="54.5632" x2="85.2069" y2="54.5632" gradientUnits="userSpaceOnUse">
<stop offset="0.05" stop-color="#62A5FF"/>
<stop offset="0.45" stop-color="#1032D1"/>
<stop offset="1"/>
</linearGradient>
<linearGradient id="paint4_linear_28_34" x1="311.928" y1="1558.16" x2="392.829" y2="1559.21" gradientUnits="userSpaceOnUse">
<stop stop-color="#FFD4B2"/>
<stop offset="0.36" stop-color="#9ACEB7"/>
<stop offset="0.67" stop-color="#47C8BB"/>
<stop offset="0.89" stop-color="#14C5BE"/>
<stop offset="1" stop-color="#00C4BF"/>
</linearGradient>
<linearGradient id="paint5_linear_28_34" x1="22.7938" y1="44.6078" x2="45.7586" y2="44.6078" gradientUnits="userSpaceOnUse">
<stop stop-color="#00FECF"/>
<stop offset="0.08" stop-color="#00E5D0"/>
<stop offset="0.25" stop-color="#00A5D1"/>
<stop offset="0.49" stop-color="#0040D4"/>
<stop offset="0.56" stop-color="#0025D5"/>
</linearGradient>
<linearGradient id="paint6_linear_28_34" x1="44.9804" y1="30.354" x2="101.507" y2="29.331" gradientUnits="userSpaceOnUse">
<stop stop-color="#00FECF"/>
<stop offset="0.05" stop-color="#00E5D0"/>
<stop offset="0.15" stop-color="#00A5D1"/>
<stop offset="0.29" stop-color="#0040D4"/>
<stop offset="0.33" stop-color="#0025D5"/>
</linearGradient>
<linearGradient id="paint7_linear_28_34" x1="24" y1="18.5203" x2="94.1239" y2="18.5203" gradientUnits="userSpaceOnUse">
<stop stop-color="#FFD4AF"/>
<stop offset="0.1" stop-color="#E6D5BA"/>
<stop offset="0.31" stop-color="#A7D6D5"/>
<stop offset="0.61" stop-color="#43D9FF"/>
<stop offset="0.63" stop-color="#37B1D0"/>
<stop offset="0.65" stop-color="#2B8CA5"/>
<stop offset="0.67" stop-color="#216B7D"/>
<stop offset="0.7" stop-color="#184E5B"/>
<stop offset="0.72" stop-color="#10353F"/>
<stop offset="0.75" stop-color="#0A2228"/>
<stop offset="0.78" stop-color="#061316"/>
<stop offset="0.82" stop-color="#020809"/>
<stop offset="0.88" stop-color="#010202"/>
<stop offset="1"/>
</linearGradient>
</defs>
</svg>

<svg width="78" height="78" fill="none" xmlns="http://www.w3.org/2000/svg"><circle cx="39" cy="39" r="39" fill="#080120"/><path d="M55.932 53s-7.163 10-16 10-16-10-16-10 7.163-10 16-10 16 10 16 10Z" fill="#080120"/><path d="M24.652 53.122a22.458 22.458 0 0 1-.095-.122 27.45 27.45 0 0 1 1.01-1.236 33.198 33.198 0 0 1 3.378-3.385c2.865-2.474 6.75-4.879 10.987-4.879s8.121 2.405 10.986 4.879a33.19 33.19 0 0 1 4.294 4.499l.095.122-.095.122a33.19 33.19 0 0 1-4.294 4.5c-2.865 2.473-6.75 4.877-10.986 4.877-4.237 0-8.122-2.404-10.987-4.878a33.198 33.198 0 0 1-4.293-4.499Z" stroke="#080120" stroke-width="1.001"/><path d="m53.118 35.965-.007-7.932L24 12.947v23.01l18.636 9.956 6.81-3-20.506-10.88.015-8.718 24.163 12.65Z" fill="url(#a)"/><path d="M35.315 26.643v2.71l-6.398 2.742.046-8.887 6.352 3.436Z" fill="url(#b)"/><path d="m35.338 49.127 14.109-6.214L28.94 32.087l6.337-2.733 26.362 13.773L35.39 54.578l-.053-5.45Z" fill="url(#c)"/><path d="m28.963 47.287 6.298-2.718.138 10.002 26.24-11.444v8.535L28.909 66l.054-18.713Z" fill="url(#d)"/><path d="m24 44.707 4.94 2.58-.03 18.682L24 63.503V44.707Z" fill="url(#e)"/><path d="m30.238 41.928 5.023 2.642-6.321 2.718-4.94-2.58 6.238-2.78Z" fill="url(#f)"/><path d="m61.639 32.27-.03-7.986-8.483 3.75v7.94l8.513-3.704Z" fill="url(#g)"/><path d="M24 12.947 32.574 9l29.05 15.27-8.498 3.763L24 12.947Z" fill="url(#h)"/><defs><linearGradient id="a" x1="16.717" y1="29.43" x2="68.151" y2="29.43" gradientUnits="userSpaceOnUse"><stop stop-color="#FFD4B2"/><stop offset=".36" stop-color="#9ACEB7"/><stop offset=".67" stop-color="#47C8BB"/><stop offset=".89" stop-color="#14C5BE"/><stop offset="1" stop-color="#00C4BF"/></linearGradient><linearGradient id="b" x1="32.116" y1="35.263" x2="32.116" y2="15.337" gradientUnits="userSpaceOnUse"><stop stop-color="#00FECF"/><stop offset=".08" stop-color="#00E5D0"/><stop offset=".24" stop-color="#00A5D1"/><stop offset=".48" stop-color="#0040D4"/><stop offset=".54" stop-color="#0025D5"/><stop offset="1"/></linearGradient><linearGradient id="c" x1="28.94" y1="41.966" x2="81.321" y2="41.966" gradientUnits="userSpaceOnUse"><stop stop-color="#FDEC9F"/><stop offset=".08" stop-color="#E4D8A4"/><stop offset=".24" stop-color="#A4A6B2"/><stop offset=".47" stop-color="#3F57C8"/><stop offset=".61" stop-color="#0025D5"/><stop offset="1"/></linearGradient><linearGradient id="d" x1="18.229" y1="54.563" x2="85.207" y2="54.563" gradientUnits="userSpaceOnUse"><stop offset=".05" stop-color="#62A5FF"/><stop offset=".45" stop-color="#1032D1"/><stop offset="1"/></linearGradient><linearGradient id="e" x1="311.928" y1="1558.16" x2="392.829" y2="1559.21" gradientUnits="userSpaceOnUse"><stop stop-color="#FFD4B2"/><stop offset=".36" stop-color="#9ACEB7"/><stop offset=".67" stop-color="#47C8BB"/><stop offset=".89" stop-color="#14C5BE"/><stop offset="1" stop-color="#00C4BF"/></linearGradient><linearGradient id="f" x1="22.794" y1="44.608" x2="45.759" y2="44.608" gradientUnits="userSpaceOnUse"><stop stop-color="#00FECF"/><stop offset=".08" stop-color="#00E5D0"/><stop offset=".25" stop-color="#00A5D1"/><stop offset=".49" stop-color="#0040D4"/><stop offset=".56" stop-color="#0025D5"/></linearGradient><linearGradient id="g" x1="44.98" y1="30.354" x2="101.507" y2="29.331" gradientUnits="userSpaceOnUse"><stop stop-color="#00FECF"/><stop offset=".05" stop-color="#00E5D0"/><stop offset=".15" stop-color="#00A5D1"/><stop offset=".29" stop-color="#0040D4"/><stop offset=".33" stop-color="#0025D5"/></linearGradient><linearGradient id="h" x1="24" y1="18.52" x2="94.124" y2="18.52" gradientUnits="userSpaceOnUse"><stop stop-color="#FFD4AF"/><stop offset=".1" stop-color="#E6D5BA"/><stop offset=".31" stop-color="#A7D6D5"/><stop offset=".61" stop-color="#43D9FF"/><stop offset=".63" stop-color="#37B1D0"/><stop offset=".65" stop-color="#2B8CA5"/><stop offset=".67" stop-color="#216B7D"/><stop offset=".7" stop-color="#184E5B"/><stop offset=".72" stop-color="#10353F"/><stop offset=".75" stop-color="#0A2228"/><stop offset=".78" stop-color="#061316"/><stop offset=".82" stop-color="#020809"/><stop offset=".88" stop-color="#010202"/><stop offset="1"/></linearGradient></defs></svg>
